!!!ONB: MCCC : IJB0068_06 : Extracted Monophonic Melody
!!!COM: Bach, Johann Sebastian
!!!OPR: Cello Suite No.6
!!!OMV: 6
!!!SCT: BWV 1012
!!!ODT: 1717///
**kern
*thru
*staff1
*IP1
*clefF4
*k[f#c#]
*D:
*M4/4
*>A
8f#
8e
4f#
=1
4A
4A
4B
4c#
=2
8d
8c#
8d
8e
8d
8e
4f#
=3
4A
4A
4B
4c#
=4
2d
*>A
8f#
8e
4f#
=1
4A
4A
4B
4c#
=2
8d
8c#
8d
8e
8d
8e
4f#
=3
4A
4A
4B
4c#
=4
2d
*>B
8A
8G
4A
=5
4B
4d
8d
8c
8B
8A
=6
2B
4A
4d
=7
4B
4d
8c#
8B
8c#
8d
=8
2e
8f#
8e
4f#
=9
4A
4A
4B
4c#
=10
8d
8c#
8d
8e
8d
8e
4f#
=11
4A
4A
4B
4c#
=12
2d
8d
8A
8d
8e
=13
8f#
8A
8g
8A
8f#
8A
8e
8A
=14
8f#
8A
8a
8A
8g
8A
8e
8A
=15
8f#
8A
8e
8d
8c#
8d
8e
8c#
=16
8d
8A
8B
8A
8d
8A
8d
8e
=17
8f#
8A
8g
8A
8f#
8A
8e
8A
=18
8f#
8A
8a
8A
8g
8A
8e
8A
=19
8f#
8A
8e
8d
8c#
8d
8e
8c#
=20
2A
8f#
8e
4f#
=21
4A
4A
4B
4c#
=22
8d
8c#
8d
8e
8d
8e
4f#
=23
4A
4A
4B
4c#
=24
2d
*>B
8A
8G
4A
=5
4B
4d
8d
8c
8B
8A
=6
2B
4A
4d
=7
4B
4d
8c#
8B
8c#
8d
=8
2e
8f#
8e
4f#
=9
4A
4A
4B
4c#
=10
8d
8c#
8d
8e
8d
8e
4f#
=11
4A
4A
4B
4c#
=12
2d
8d
8A
8d
8e
=13
8f#
8A
8g
8A
8f#
8A
8e
8A
=14
8f#
8A
8a
8A
8g
8A
8e
8A
=15
8f#
8A
8e
8d
8c#
8d
8e
8c#
=16
8d
8A
8B
8A
8d
8A
8d
8e
=17
8f#
8A
8g
8A
8f#
8A
8e
8A
=18
8f#
8A
8a
8A
8g
8A
8e
8A
=19
8f#
8A
8e
8d
8c#
8d
8e
8c#
=20
2A
8f#
8e
4f#
=21
4A
4A
4B
4c#
=22
8d
8c#
8d
8e
8d
8e
4f#
=23
4A
4A
4B
4c#
=24
2d
==
*-
